src/topics/icons/keycdn.svg

<svg height="247" preserveAspectRatio="xMidYMid" viewBox="0 0 256 247" width="256" xmlns="http://www.w3.org/2000/svg" xmlns:xlink="http://www.w3.org/1999/xlink"><linearGradient id="a" x1="48.878145%" x2="51.12197%" y1=".012601%" y2="99.987496%"><stop offset="0" stop-color="#009fe6"/><stop offset="1" stop-color="#006db7"/></linearGradient><path d="m24.5833474 198.636278c2.4060907.09977 4.8454381.437366 7.1185015 1.269946l-.0003867-.021269.3433958.123359 29.9601209-29.227311 1.0994078 1.466006c1.5580423 2.107166 3.2069607 4.03142 4.9475287 5.955674l.6415468.732809c.4582478.457861.8244593.916109 1.282707 1.374357l.7328097.733196.7331963.73281.6411601.641547.7331964.732809.6411601.641547.824846.73281.7328096.641547c13.9268641 11.818924 31.3348636 18.507021 49.6593596 18.965269 15.117535.366598 29.868085-3.481523 42.78719-11.086115l2.290466 2.382115c2.656676 2.840362 5.405389 5.680725 8.062839 8.521087-15.94238 10.261269-34.449788 15.392097-53.50748 14.934236-21.43942-.549897-41.8706948-8.246139-58.2709365-21.989317l.0908761-.183299-19.2232024 18.949027c.7119275 2.240967.9953837 4.590211 1.0251601 6.934042 0 13.235432-10.7291843 23.965003-23.9646163 23.965003s-23.965003-10.729571-23.965003-23.965003 10.729571-23.964616 23.965003-23.964616zm183.1919756-123.6000484c9.437583 15.4841329 14.109777 33.3503804 13.651529 51.4919634-.549124 22.171843-8.886912 43.336701-23.546586 59.920242l.092036.092036 11.818925 12.551734c4.763842-.64116 9.528459 1.007759 12.827069 4.489281 5.589076 5.955674 5.40539 15.301221-.549897 20.981946-5.955287 5.588689-15.300834 5.40539-20.981172-.549897-3.298611-3.48191-4.672967-8.337789-3.756858-13.010369-5.49704-5.864024-15.209185-16.216942-20.79826-22.080967l-1.190671-1.282707 1.374357-1.099021c3.572785-2.840362 6.871395-5.955673 9.89467-9.437583 12.552508-14.109776 19.607589-32.067673 20.065837-50.94168.366212-14.292688-3.024048-28.311202-9.895444-40.6800237zm-166.9471901-56.0040604c4.2120121-.0622598 8.1595166 1.5998066 11.0984895 4.6041329 3.2982235 3.4819094 4.67258 8.3377885 3.7564713 13.0107553l22.7225136 23.8215347-1.3743565 1.0990212c-3.573559 2.8403625-6.8717825 5.9556737-9.8954442 9.4375831-12.5517341 14.1093897-19.6068157 32.0676736-20.1567129 50.9416796-.3665982 14.292689 3.0236616 28.311203 9.8954441 40.771674l-10.9035892 10.627867c-9.5284592-15.575783-14.2923021-33.44203-13.7431782-51.766139.4729426-22.0577644 9.0705982-43.3641572 23.5052085-59.9643263l-12.5107433-13.0583203c-4.7638429.6411601-9.5284592-1.0077583-12.8270694-4.4892809-5.5883022-5.9552871-5.4053898-15.3012206.5498972-20.981559 2.3179215-2.1744531 5.3056194-3.5770392 8.463855-3.9536918.4710091-.0560725.9458852-.067287 1.4192145-.1009305zm191.1971961-19.0321692c13.235432 0 23.964617 10.7291843 23.964617 23.9646163s-10.729185 23.965003-23.964617 23.965003c-2.546852.0282296-5.053099-.4404592-7.475818-1.1937643l-.006961.0262961-.366985-.1287735-32.525921 30.8770031-1.099022-1.4660061c-1.740568-2.2904652-3.664821-4.5813172-5.680725-6.6888701l-.366598-.457861-1.007758-1.0077583-.182913-.1832991-.641546-.6415468-.183686-.1829124-.824459-.8244592-.640774-.5498973-.641547-.5498973-.824459-.7328097-.641933-.5498972-.82446-.7331964c-13.834827-11.6356254-31.151178-18.2324592-49.291988-18.690707-15.117921-.3662114-29.8688576 3.3902599-42.6959271 11.0865016l-10.4449546-10.9032025c15.9419939-10.2616556 34.4494017-15.3924834 53.5070937-14.9342356 21.43942.5495106 41.870695 8.2457522 58.27171 22.08058h.182912l21.539577-20.4486767c-.759105-2.3128943-1.066924-4.7410272-1.097861-7.1676133 0-13.235432 10.729571-23.9646163 23.965003-23.9646163z" fill="#5b5b5b"/><path d="m127.573076 53.5c2.707722.0119879 5.408483.2211964 8.096096.5352024 38.664121 4.8558792 66.058828 40.1301269 61.294985 78.7946346-4.856266 38.664121-40.130513 66.059214-78.794634 61.294985-38.6648946-4.856266-66.0596015-40.130514-61.2949852-78.794635 4.6122537-35.8670692 34.7483262-61.7048939 70.6985382-61.830187zm-1.063058 30.2807009c-15.651964 1.2525438-26.9782234 13.0927372-27.3757582 28.8235891.2834562 11.220689 6.0299212 20.692302 16.0506582 25.853293l-5.445607 25.606187h36.511323l-5.438259-25.610441c9.963891-5.411577 15.885148-14.361909 16.043698-25.849039-.212303-16.2339577-12.774865-28.454284-28.8611-28.8610997zm.546417-.1519758h-.091263l.045632.0007734z" fill="url(#a)"/></svg>

<?xml version="1.0" encoding="UTF-8"?>
<svg width="256px" height="247px" viewBox="0 0 256 247" version="1.1" xmlns="http://www.w3.org/2000/svg" xmlns:xlink="http://www.w3.org/1999/xlink" preserveAspectRatio="xMidYMid">
    <defs>
        <linearGradient x1="48.8781453%" y1="0.0126014056%" x2="51.1219701%" y2="99.9874963%" id="linearGradient-1">
            <stop stop-color="#009FE6" offset="0%"></stop>
            <stop stop-color="#006DB7" offset="100%"></stop>
        </linearGradient>
    </defs>
	<g>
		<path d="M24.5833474,198.636278 C26.9894381,198.736048 29.4287855,199.073644 31.7018489,199.906224 L31.7014622,199.884955 L32.044858,200.008314 L62.0049789,170.781003 L63.1043867,172.247009 C64.662429,174.354175 66.3113474,176.278429 68.0519154,178.202683 L68.6934622,178.935492 C69.15171,179.393353 69.5179215,179.851601 69.9761692,180.309849 L70.7089789,181.043045 L71.4421752,181.775855 L72.0833353,182.417402 L72.8165317,183.150211 L73.4576918,183.791758 L74.2825378,184.524568 L75.0153474,185.166115 C88.9422115,196.985039 106.350211,203.673136 124.674707,204.131384 C139.792242,204.497982 154.542792,200.649861 167.461897,193.045269 L169.752363,195.427384 C172.409039,198.267746 175.157752,201.108109 177.815202,203.948471 C161.872822,214.20974 143.365414,219.340568 124.307722,218.882707 C102.868302,218.33281 82.4370272,210.636568 66.0367855,196.89339 L66.1276616,196.710091 L46.9044592,215.659118 C47.6163867,217.900085 47.8998429,220.249329 47.9296193,222.59316 C47.9296193,235.828592 37.200435,246.558163 23.965003,246.558163 C10.729571,246.558163 0,235.828592 0,222.59316 C0,209.357728 10.729571,198.628544 23.965003,198.628544 L24.5833474,198.636278 Z M207.775323,75.0362296 C217.212906,90.5203625 221.8851,108.38661 221.426852,126.528193 C220.877728,148.700036 212.53994,169.864894 197.880266,186.448435 L197.972302,186.540471 L209.791227,199.092205 C214.555069,198.451045 219.319686,200.099964 222.618296,203.581486 C228.207372,209.53716 228.023686,218.882707 222.068399,224.563432 C216.113112,230.152121 206.767565,229.968822 201.087227,224.013535 C197.788616,220.531625 196.41426,215.675746 197.330369,211.003166 C191.833329,205.139142 182.121184,194.786224 176.532109,188.922199 L175.341438,187.639492 L176.715795,186.540471 C180.28858,183.700109 183.58719,180.584798 186.610465,177.102888 C199.162973,162.993112 206.218054,145.035215 206.676302,126.161208 C207.042514,111.86852 203.652254,97.850006 196.780858,85.4811843 L207.775323,75.0362296 Z M40.8281329,19.0321692 C45.040145,18.9699094 48.9876495,20.6319758 51.9266224,23.6363021 C55.2248459,27.1182115 56.5992024,31.9740906 55.6830937,36.6470574 L78.4056073,60.4685921 L77.0312508,61.5676133 C73.4576918,64.4079758 70.1594683,67.523287 67.1358066,71.0051964 C54.5840725,85.1145861 47.5289909,103.07287 46.9790937,121.946876 C46.6124955,136.239565 50.0027553,150.258079 56.8745378,162.71855 L45.9709486,173.346417 C36.4424894,157.770634 31.6786465,139.904387 32.2277704,121.580278 C32.700713,99.5225136 41.2983686,78.2161208 55.7329789,61.6159517 L43.2222356,48.5576314 C38.4583927,49.1987915 33.6937764,47.5498731 30.3951662,44.0683505 C24.806864,38.1130634 24.9897764,28.7671299 30.9450634,23.0867915 C33.2629849,20.9123384 36.2506828,19.5097523 39.4089184,19.1330997 C39.8799275,19.0770272 40.3548036,19.0658127 40.8281329,19.0321692 Z M232.025329,0 C245.260761,0 255.989946,10.7291843 255.989946,23.9646163 C255.989946,37.2000483 245.260761,47.9296193 232.025329,47.9296193 C229.478477,47.9578489 226.97223,47.4891601 224.549511,46.735855 L224.54255,46.7621511 L224.175565,46.6333776 L191.649644,77.5103807 L190.550622,76.0443746 C188.810054,73.7539094 186.885801,71.4630574 184.869897,69.3555045 L184.503299,68.8976435 L183.495541,67.8898852 L183.312628,67.7065861 L182.671082,67.0650393 L182.487396,66.8821269 L181.662937,66.0576677 L181.022163,65.5077704 L180.380616,64.9578731 L179.556157,64.2250634 L178.914224,63.6751662 L178.089764,62.9419698 C164.254937,51.3063444 146.938586,44.7095106 128.797776,44.2512628 C113.679855,43.8850514 98.9289184,47.6415227 86.1018489,55.3377644 L75.6568943,44.4345619 C91.5988882,34.1729063 110.106296,29.0420785 129.163988,29.5003263 C150.603408,30.0498369 171.034683,37.7460785 187.435698,51.5809063 L187.61861,51.5809063 L209.158187,31.1322296 C208.399082,28.8193353 208.091263,26.3912024 208.060326,23.9646163 C208.060326,10.7291843 218.789897,0 232.025329,0 Z" fill="#5B5B5B"></path>
		<path d="M127.573076,53.5 C130.280798,53.5119879 132.981559,53.7211964 135.669172,54.0352024 C174.333293,58.8910816 201.728,94.1653293 196.964157,132.829837 C192.107891,171.493958 156.833644,198.889051 118.169523,194.124822 C79.5046284,189.268556 52.1099215,153.994308 56.8745378,115.330187 C61.4867915,79.4631178 91.622864,53.6252931 127.573076,53.5 Z M126.510018,83.7807009 C110.858054,85.0332447 99.5317946,96.8734381 99.1342598,112.60429 C99.417716,123.824979 105.164181,133.296592 115.184918,138.457583 L109.739311,164.06377 L146.250634,164.06377 L140.812375,138.453329 C150.776266,133.041752 156.697523,124.09142 156.856073,112.60429 C156.64377,96.3703323 144.081208,84.150006 127.994973,83.7431903 L126.510018,83.7807009 Z M127.056435,83.6287251 L126.965172,83.6287251 L127.010804,83.6294985 L127.056435,83.6287251 Z" fill="url(#linearGradient-1)"></path>
	</g>
</svg>
